X:1
T:Dick Gossip's
R:reel
N:Sometimes played with the parts in the opposite order
B:&quot;Whistle and Sing&quot; by Eamonn Jordan
M:4/4
L:1/8
K:D
ef|gB~B2 gBaB|gB~B2 gfed|(3cBA eA fAeA|(3cBA eA cdef|
gB~B2 gBaB|gB~B2 gfed|cdef gece|1 dfec d2:|2 dfec dB|]
AG|F2AF BFAF|F2AF GFED|~E3F GFED|~E3F GFED|
F2AF BFAF|F2AF GFED|(3Bcd ef gece|1 dfec dB:|2 dfec d2|]
</abc>
